public/assets/logos/software/vue.svg

<svg fill="none" height="10" viewBox="0 0 10 10" width="10" xmlns="http://www.w3.org/2000/svg" xmlns:xlink="http://www.w3.org/1999/xlink"><clipPath id="a"><path d="m0 .683998h10v8.632h-10z"/></clipPath><g clip-path="url(#a)"><path d="m7.99915.683983h1.99981l-4.99953 8.624187-4.999533-8.624187h3.824643l1.17489 1.999807 1.14989-1.999807z" fill="#41b883"/><path d="m-.000103.683983 4.999533 8.624187 4.99953-8.624187h-1.99981l-2.99972 5.174517-3.02472-5.174517z" fill="#41b883"/><path d="m1.97483.683998 3.02471 5.199512 2.99972-5.199512h-1.84983l-1.14989 1.999812-1.17489-1.999812z" fill="#35495e"/></g></svg>

<svg width="10" height="10" viewBox="0 0 10 10" fill="none" xmlns="http://www.w3.org/2000/svg">
<g clip-path="url(#clip0_9_134)">
<path d="M7.99915 0.683983H9.99896L4.99943 9.30817L-0.000102997 0.683983H3.82454L4.99943 2.68379L6.14932 0.683983H7.99915Z" fill="#41B883"/>
<path d="M-0.000102997 0.683983L4.99943 9.30817L9.99896 0.683983H7.99915L4.99943 5.8585L1.97471 0.683983H-0.000102997Z" fill="#41B883"/>
<path d="M1.97483 0.683998L4.99954 5.88351L7.99926 0.683998H6.14943L4.99954 2.68381L3.82465 0.683998H1.97483Z" fill="#35495E"/>
</g>
<defs>
<clipPath id="clip0_9_134">
<rect width="10" height="8.632" fill="white" transform="translate(0 0.683998)"/>
</clipPath>
</defs>
</svg>
